X:11002
T:Teetotaller's, The
R:Reel
B:Tuneworks Tunebook (https://www.tuneworks.co.uk/)
G:Tuneworks
Z:Jon Warbrick <jon.warbrick@googlemail.com>
M:4/4
L:1/8
K:G
|: "G"G2 GF GABc | ecgf dBAc | "C"BEED EFGA | "D"BGAG GFED | 
"G"G2 GF GABc | dBge dBAc | "C"BEED EFGA | "D"BGAF "G"G4 :|
|: "Em"Geed e2 ef | gfaf gfed | "D"Add^c d2 de | fefa gfed | 
"Em"Beed e2 ef | gfaf gfed | "C"BEED EFGA | "D"BGAF "G"G4 :| 